images/header/social-link-one4.svg

<svg width="76" height="76" viewBox="0 0 76 76" fill="none" xmlns="http://www.w3.org/2000/svg">
<mask id="mask0_9127_17548" style="mask-type:alpha" maskUnits="userSpaceOnUse" x="8" y="16" width="60" height="44">
<path d="M8 28L20 16H56L68 28V48L56 60H20L8 48V28Z" fill="black"/>
</mask>
<g mask="url(#mask0_9127_17548)">
<g filter="url(#filter0_f_9127_17548)">
<circle cx="58" cy="18" r="10" fill="url(#paint0_linear_9127_17548)"/>
</g>
<g filter="url(#filter1_f_9127_17548)">
<ellipse cx="40" cy="36" rx="10" ry="6" fill="url(#paint1_linear_9127_17548)"/>
</g>
<g filter="url(#filter2_f_9127_17548)">
<ellipse cx="13" cy="55" rx="9" ry="5" fill="url(#paint2_linear_9127_17548)"/>
</g>
</g>
<path d="M8 28L20 16H56L68 28V48L56 60H20L8 48V28Z" fill="url(#paint3_linear_9127_17548)"/>
<g filter="url(#filter3_f_9127_17548)">
<path d="M68 50L56 60L52 60L65 49L65 25L68 28L68 50Z" fill="url(#paint4_linear_9127_17548)" fill-opacity="0.6"/>
</g>
<g filter="url(#filter4_f_9127_17548)">
<path d="M8 26L20 16H24L11 27V51L8 48V26Z" fill="url(#paint5_linear_9127_17548)" fill-opacity="0.6"/>
</g>
<g filter="url(#filter5_b_9127_17548)">
<path d="M68 50L56 60L52 60L65 49L65 25L68 28L68 50Z" fill="url(#paint6_linear_9127_17548)"/>
</g>
<g filter="url(#filter6_b_9127_17548)">
<path d="M8 26L20 16H24L11 27V51L8 48V26Z" fill="url(#paint7_linear_9127_17548)"/>
</g>
<g filter="url(#filter7_f_9127_17548)">
<path d="M16 56H60L56 60H20L16 56Z" fill="url(#paint8_linear_9127_17548)" fill-opacity="0.6"/>
</g>
<g filter="url(#filter8_f_9127_17548)">
<path d="M60 20L16 20L20 16L56 16L60 20Z" fill="url(#paint9_linear_9127_17548)" fill-opacity="0.6"/>
</g>
<g filter="url(#filter9_d_9127_17548)">
<path d="M45.1538 28H30.8462C29.2308 28 28 29.2308 28 30.8462V45.1538C28 46.7692 29.2308 48 30.8462 48H45.1538C46.7692 48 48 46.7692 48 45.1538V30.8462C48 29.2308 46.7692 28 45.1538 28ZM38 44C41.3077 44 44 41.3846 44 38.2308C44 37.6923 43.9231 37.0769 43.7692 36.6154H45.4615V44.7692C45.4615 45.1538 45.1538 45.5385 44.6923 45.5385H31.3077C30.9231 45.5385 30.5385 45.2308 30.5385 44.7692V36.5385H32.3077C32.1539 37.0769 32.0769 37.6154 32.0769 38.1538C32 41.3846 34.6923 44 38 44ZM38 41.6923C35.8462 41.6923 34.1538 40 34.1538 37.9231C34.1538 35.8462 35.8462 34.1538 38 34.1538C40.1538 34.1538 41.8462 35.8462 41.8462 37.9231C41.8462 40.0769 40.1538 41.6923 38 41.6923ZM45.3846 33.4615C45.3846 33.9231 45 34.3077 44.5385 34.3077H42.3846C41.9231 34.3077 41.5385 33.9231 41.5385 33.4615V31.3846C41.5385 30.9231 41.9231 30.5385 42.3846 30.5385H44.5385C45 30.5385 45.3846 30.9231 45.3846 31.3846V33.4615Z" fill="white"/>
</g>
<defs>
<filter id="filter0_f_9127_17548" x="24" y="-16" width="68" height="68" filterUnits="userSpaceOnUse" color-interpolation-filters="sRGB">
<feFlood flood-opacity="0" result="BackgroundImageFix"/>
<feBlend mode="normal" in="SourceGraphic" in2="BackgroundImageFix" result="shape"/>
<feGaussianBlur stdDeviation="12" result="effect1_foregroundBlur_9127_17548"/>
</filter>
<filter id="filter1_f_9127_17548" x="-6" y="-6" width="92" height="84" filterUnits="userSpaceOnUse" color-interpolation-filters="sRGB">
<feFlood flood-opacity="0" result="BackgroundImageFix"/>
<feBlend mode="normal" in="SourceGraphic" in2="BackgroundImageFix" result="shape"/>
<feGaussianBlur stdDeviation="18" result="effect1_foregroundBlur_9127_17548"/>
</filter>
<filter id="filter2_f_9127_17548" x="-20" y="26" width="66" height="58" filterUnits="userSpaceOnUse" color-interpolation-filters="sRGB">
<feFlood flood-opacity="0" result="BackgroundImageFix"/>
<feBlend mode="normal" in="SourceGraphic" in2="BackgroundImageFix" result="shape"/>
<feGaussianBlur stdDeviation="12" result="effect1_foregroundBlur_9127_17548"/>
</filter>
<filter id="filter3_f_9127_17548" x="48" y="21" width="24" height="43" filterUnits="userSpaceOnUse" color-interpolation-filters="sRGB">
<feFlood flood-opacity="0" result="BackgroundImageFix"/>
<feBlend mode="normal" in="SourceGraphic" in2="BackgroundImageFix" result="shape"/>
<feGaussianBlur stdDeviation="2" result="effect1_foregroundBlur_9127_17548"/>
</filter>
<filter id="filter4_f_9127_17548" x="4" y="12" width="24" height="43" filterUnits="userSpaceOnUse" color-interpolation-filters="sRGB">
<feFlood flood-opacity="0" result="BackgroundImageFix"/>
<feBlend mode="normal" in="SourceGraphic" in2="BackgroundImageFix" result="shape"/>
<feGaussianBlur stdDeviation="2" result="effect1_foregroundBlur_9127_17548"/>
</filter>
<filter id="filter5_b_9127_17548" x="40" y="13" width="40" height="59" filterUnits="userSpaceOnUse" color-interpolation-filters="sRGB">
<feFlood flood-opacity="0" result="BackgroundImageFix"/>
<feGaussianBlur in="BackgroundImageFix" stdDeviation="6"/>
<feComposite in2="SourceAlpha" operator="in" result="effect1_backgroundBlur_9127_17548"/>
<feBlend mode="normal" in="SourceGraphic" in2="effect1_backgroundBlur_9127_17548" result="shape"/>
</filter>
<filter id="filter6_b_9127_17548" x="-4" y="4" width="40" height="59" filterUnits="userSpaceOnUse" color-interpolation-filters="sRGB">
<feFlood flood-opacity="0" result="BackgroundImageFix"/>
<feGaussianBlur in="BackgroundImageFix" stdDeviation="6"/>
<feComposite in2="SourceAlpha" operator="in" result="effect1_backgroundBlur_9127_17548"/>
<feBlend mode="normal" in="SourceGraphic" in2="effect1_backgroundBlur_9127_17548" result="shape"/>
</filter>
<filter id="filter7_f_9127_17548" x="0" y="40" width="76" height="36" filterUnits="userSpaceOnUse" color-interpolation-filters="sRGB">
<feFlood flood-opacity="0" result="BackgroundImageFix"/>
<feBlend mode="normal" in="SourceGraphic" in2="BackgroundImageFix" result="shape"/>
<feGaussianBlur stdDeviation="8" result="effect1_foregroundBlur_9127_17548"/>
</filter>
<filter id="filter8_f_9127_17548" x="0" y="0" width="76" height="36" filterUnits="userSpaceOnUse" color-interpolation-filters="sRGB">
<feFlood flood-opacity="0" result="BackgroundImageFix"/>
<feBlend mode="normal" in="SourceGraphic" in2="BackgroundImageFix" result="shape"/>
<feGaussianBlur stdDeviation="8" result="effect1_foregroundBlur_9127_17548"/>
</filter>
<filter id="filter9_d_9127_17548" x="22" y="22" width="32" height="32" filterUnits="userSpaceOnUse" color-interpolation-filters="sRGB">
<feFlood flood-opacity="0" result="BackgroundImageFix"/>
<feColorMatrix in="SourceAlpha" type="matrix" values="0 0 0 0 0 0 0 0 0 0 0 0 0 0 0 0 0 0 127 0" result="hardAlpha"/>
<feOffset/>
<feGaussianBlur stdDeviation="3"/>
<feComposite in2="hardAlpha" operator="out"/>
<feColorMatrix type="matrix" values="0 0 0 0 1 0 0 0 0 0.00833333 0 0 0 0 0.603333 0 0 0 1 0"/>
<feBlend mode="normal" in2="BackgroundImageFix" result="effect1_dropShadow_9127_17548"/>
<feBlend mode="normal" in="SourceGraphic" in2="effect1_dropShadow_9127_17548" result="shape"/>
</filter>
<linearGradient id="paint0_linear_9127_17548" x1="58" y1="8" x2="58" y2="28" gradientUnits="userSpaceOnUse">
<stop stop-color="#1B4CFA"/>
<stop offset="1" stop-color="#F5A1FC"/>
</linearGradient>
<linearGradient id="paint1_linear_9127_17548" x1="40" y1="30" x2="40" y2="42" gradientUnits="userSpaceOnUse">
<stop stop-color="#1B4CFA"/>
<stop offset="1" stop-color="#F5A1FC"/>
</linearGradient>
<linearGradient id="paint2_linear_9127_17548" x1="13" y1="50" x2="13" y2="60" gradientUnits="userSpaceOnUse">
<stop stop-color="#1B4CFA"/>
<stop offset="1" stop-color="#F5A1FC"/>
</linearGradient>
<linearGradient id="paint3_linear_9127_17548" x1="-12" y1="38" x2="80.5" y2="38" gradientUnits="userSpaceOnUse">
<stop stop-color="#E32E9B" stop-opacity="0.3"/>
<stop offset="0.5" stop-color="#B922A1" stop-opacity="0"/>
<stop offset="1" stop-color="#8F16A7" stop-opacity="0.3"/>
</linearGradient>
<linearGradient id="paint4_linear_9127_17548" x1="60" y1="60" x2="60" y2="25" gradientUnits="userSpaceOnUse">
<stop stop-color="#2602FF" stop-opacity="0"/>
<stop offset="1" stop-color="#48C3E9"/>
</linearGradient>
<linearGradient id="paint5_linear_9127_17548" x1="16" y1="16" x2="16" y2="51" gradientUnits="userSpaceOnUse">
<stop stop-color="#2602FF" stop-opacity="0"/>
<stop offset="1" stop-color="#48C3E9"/>
</linearGradient>
<linearGradient id="paint6_linear_9127_17548" x1="29" y1="-1" x2="47.5001" y2="73.5" gradientUnits="userSpaceOnUse">
<stop stop-color="#1B4CFA"/>
<stop offset="1" stop-color="#F5A1FC"/>
</linearGradient>
<linearGradient id="paint7_linear_9127_17548" x1="47" y1="77" x2="28.4999" y2="2.50003" gradientUnits="userSpaceOnUse">
<stop stop-color="#1B4CFA"/>
<stop offset="1" stop-color="#F5A1FC"/>
</linearGradient>
<linearGradient id="paint8_linear_9127_17548" x1="38" y1="56" x2="38" y2="60" gradientUnits="userSpaceOnUse">
<stop stop-color="white" stop-opacity="0"/>
<stop offset="1" stop-color="#48C3E9"/>
</linearGradient>
<linearGradient id="paint9_linear_9127_17548" x1="38" y1="20" x2="38" y2="16" gradientUnits="userSpaceOnUse">
<stop stop-color="white" stop-opacity="0"/>
<stop offset="1" stop-color="#48C3E9"/>
</linearGradient>
</defs>
</svg>

<svg xmlns="http://www.w3.org/2000/svg" width="76" height="76" fill="none"><mask id="a" width="60" height="44" x="8" y="16" maskUnits="userSpaceOnUse" style="mask-type:alpha"><path fill="#000" d="m8 28 12-12h36l12 12v20L56 60H20L8 48z"/></mask><g mask="url(#a)"><g filter="url(#b)"><circle cx="58" cy="18" r="10" fill="url(#c)"/></g><g filter="url(#d)"><ellipse cx="40" cy="36" fill="url(#e)" rx="10" ry="6"/></g><g filter="url(#f)"><ellipse cx="13" cy="55" fill="url(#g)" rx="9" ry="5"/></g></g><path fill="url(#h)" d="m8 28 12-12h36l12 12v20L56 60H20L8 48z"/><g filter="url(#i)"><path fill="url(#j)" fill-opacity=".6" d="M68 50 56 60h-4l13-11V25l3 3z"/></g><g filter="url(#k)"><path fill="url(#l)" fill-opacity=".6" d="m8 26 12-10h4L11 27v24l-3-3z"/></g><g filter="url(#m)"><path fill="url(#n)" d="M68 50 56 60h-4l13-11V25l3 3z"/></g><g filter="url(#o)"><path fill="url(#p)" d="m8 26 12-10h4L11 27v24l-3-3z"/></g><g filter="url(#q)"><path fill="url(#r)" fill-opacity=".6" d="M16 56h44l-4 4H20z"/></g><g filter="url(#s)"><path fill="url(#t)" fill-opacity=".6" d="M60 20H16l4-4h36z"/></g><g filter="url(#u)"><path fill="#fff" d="M45.154 28H30.846C29.231 28 28 29.23 28 30.846v14.308C28 46.769 29.23 48 30.846 48h14.308C46.769 48 48 46.77 48 45.154V30.846C48 29.231 46.77 28 45.154 28M38 44c3.308 0 6-2.615 6-5.77 0-.538-.077-1.153-.23-1.615h1.691v8.154a.77.77 0 0 1-.769.77H31.308a.77.77 0 0 1-.77-.77v-8.23h1.77a5.9 5.9 0 0 0-.231 1.615C32 41.384 34.692 44 38 44m0-2.308c-2.154 0-3.846-1.692-3.846-3.769s1.692-3.77 3.846-3.77 3.846 1.693 3.846 3.77c0 2.154-1.692 3.77-3.846 3.77m7.385-8.23a.854.854 0 0 1-.846.846h-2.154a.854.854 0 0 1-.846-.846v-2.077c0-.462.384-.847.846-.847h2.154c.461 0 .846.385.846.847z"/></g><defs><linearGradient id="c" x1="58" x2="58" y1="8" y2="28" gradientUnits="userSpaceOnUse"><stop stop-color="#1B4CFA"/><stop offset="1" stop-color="#F5A1FC"/></linearGradient><linearGradient id="e" x1="40" x2="40" y1="30" y2="42" gradientUnits="userSpaceOnUse"><stop stop-color="#1B4CFA"/><stop offset="1" stop-color="#F5A1FC"/></linearGradient><linearGradient id="g" x1="13" x2="13" y1="50" y2="60" gradientUnits="userSpaceOnUse"><stop stop-color="#1B4CFA"/><stop offset="1" stop-color="#F5A1FC"/></linearGradient><linearGradient id="h" x1="-12" x2="80.5" y1="38" y2="38" gradientUnits="userSpaceOnUse"><stop stop-color="#E32E9B" stop-opacity=".3"/><stop offset=".5" stop-color="#B922A1" stop-opacity="0"/><stop offset="1" stop-color="#8F16A7" stop-opacity=".3"/></linearGradient><linearGradient id="j" x1="60" x2="60" y1="60" y2="25" gradientUnits="userSpaceOnUse"><stop stop-color="#2602FF" stop-opacity="0"/><stop offset="1" stop-color="#48C3E9"/></linearGradient><linearGradient id="l" x1="16" x2="16" y1="16" y2="51" gradientUnits="userSpaceOnUse"><stop stop-color="#2602FF" stop-opacity="0"/><stop offset="1" stop-color="#48C3E9"/></linearGradient><linearGradient id="n" x1="29" x2="47.5" y1="-1" y2="73.5" gradientUnits="userSpaceOnUse"><stop stop-color="#1B4CFA"/><stop offset="1" stop-color="#F5A1FC"/></linearGradient><linearGradient id="p" x1="47" x2="28.5" y1="77" y2="2.5" gradientUnits="userSpaceOnUse"><stop stop-color="#1B4CFA"/><stop offset="1" stop-color="#F5A1FC"/></linearGradient><linearGradient id="r" x1="38" x2="38" y1="56" y2="60" gradientUnits="userSpaceOnUse"><stop stop-color="#fff" stop-opacity="0"/><stop offset="1" stop-color="#48C3E9"/></linearGradient><linearGradient id="t" x1="38" x2="38" y1="20" y2="16" gradientUnits="userSpaceOnUse"><stop stop-color="#fff" stop-opacity="0"/><stop offset="1" stop-color="#48C3E9"/></linearGradient><filter id="b" width="68" height="68" x="24" y="-16" color-interpolation-filters="sRGB" filterUnits="userSpaceOnUse"><feFlood flood-opacity="0" result="BackgroundImageFix"/><feBlend in="SourceGraphic" in2="BackgroundImageFix" result="shape"/><feGaussianBlur result="effect1_foregroundBlur_9127_17548" stdDeviation="12"/></filter><filter id="d" width="92" height="84" x="-6" y="-6" color-interpolation-filters="sRGB" filterUnits="userSpaceOnUse"><feFlood flood-opacity="0" result="BackgroundImageFix"/><feBlend in="SourceGraphic" in2="BackgroundImageFix" result="shape"/><feGaussianBlur result="effect1_foregroundBlur_9127_17548" stdDeviation="18"/></filter><filter id="f" width="66" height="58" x="-20" y="26" color-interpolation-filters="sRGB" filterUnits="userSpaceOnUse"><feFlood flood-opacity="0" result="BackgroundImageFix"/><feBlend in="SourceGraphic" in2="BackgroundImageFix" result="shape"/><feGaussianBlur result="effect1_foregroundBlur_9127_17548" stdDeviation="12"/></filter><filter id="i" width="24" height="43" x="48" y="21" color-interpolation-filters="sRGB" filterUnits="userSpaceOnUse"><feFlood flood-opacity="0" result="BackgroundImageFix"/><feBlend in="SourceGraphic" in2="BackgroundImageFix" result="shape"/><feGaussianBlur result="effect1_foregroundBlur_9127_17548" stdDeviation="2"/></filter><filter id="k" width="24" height="43" x="4" y="12" color-interpolation-filters="sRGB" filterUnits="userSpaceOnUse"><feFlood flood-opacity="0" result="BackgroundImageFix"/><feBlend in="SourceGraphic" in2="BackgroundImageFix" result="shape"/><feGaussianBlur result="effect1_foregroundBlur_9127_17548" stdDeviation="2"/></filter><filter id="m" width="40" height="59" x="40" y="13" color-interpolation-filters="sRGB" filterUnits="userSpaceOnUse"><feFlood flood-opacity="0" result="BackgroundImageFix"/><feGaussianBlur in="BackgroundImageFix" stdDeviation="6"/><feComposite in2="SourceAlpha" operator="in" result="effect1_backgroundBlur_9127_17548"/><feBlend in="SourceGraphic" in2="effect1_backgroundBlur_9127_17548" result="shape"/></filter><filter id="o" width="40" height="59" x="-4" y="4" color-interpolation-filters="sRGB" filterUnits="userSpaceOnUse"><feFlood flood-opacity="0" result="BackgroundImageFix"/><feGaussianBlur in="BackgroundImageFix" stdDeviation="6"/><feComposite in2="SourceAlpha" operator="in" result="effect1_backgroundBlur_9127_17548"/><feBlend in="SourceGraphic" in2="effect1_backgroundBlur_9127_17548" result="shape"/></filter><filter id="q" width="76" height="36" x="0" y="40" color-interpolation-filters="sRGB" filterUnits="userSpaceOnUse"><feFlood flood-opacity="0" result="BackgroundImageFix"/><feBlend in="SourceGraphic" in2="BackgroundImageFix" result="shape"/><feGaussianBlur result="effect1_foregroundBlur_9127_17548" stdDeviation="8"/></filter><filter id="s" width="76" height="36" x="0" y="0" color-interpolation-filters="sRGB" filterUnits="userSpaceOnUse"><feFlood flood-opacity="0" result="BackgroundImageFix"/><feBlend in="SourceGraphic" in2="BackgroundImageFix" result="shape"/><feGaussianBlur result="effect1_foregroundBlur_9127_17548" stdDeviation="8"/></filter><filter id="u" width="32" height="32" x="22" y="22" color-interpolation-filters="sRGB" filterUnits="userSpaceOnUse"><feFlood flood-opacity="0" result="BackgroundImageFix"/><feColorMatrix in="SourceAlpha" result="hardAlpha" values="0 0 0 0 0 0 0 0 0 0 0 0 0 0 0 0 0 0 127 0"/><feOffset/><feGaussianBlur stdDeviation="3"/><feComposite in2="hardAlpha" operator="out"/><feColorMatrix values="0 0 0 0 1 0 0 0 0 0.00833333 0 0 0 0 0.603333 0 0 0 1 0"/><feBlend in2="BackgroundImageFix" result="effect1_dropShadow_9127_17548"/><feBlend in="SourceGraphic" in2="effect1_dropShadow_9127_17548" result="shape"/></filter></defs></svg>
